; generated by PrusaSlicer 2.2.0+win64 on 2020-08-01 at 17:04:20 UTC

; 

; external perimeters extrusion width = 0.45mm
; perimeters extrusion width = 0.45mm
; infill extrusion width = 0.45mm
; solid infill extrusion width = 0.45mm
; top infill extrusion width = 0.40mm
; first layer extrusion width = 0.42mm

M73 P0 R60
M73 Q0 S61
M201 X1000 Y1000 Z200 E5000 ; sets maximum accelerations, mm/sec^2
M203 X200 Y200 Z12 E120 ; sets maximum feedrates, mm/sec
M204 P1250 R1250 T1250 ; sets acceleration (P, T) and retract acceleration (R), mm/sec^2
M205 X8.00 Y8.00 Z0.40 E4.50 ; sets the jerk limits, mm/sec
M205 S0 T0 ; sets the minimum extruding and travel feed rate, mm/sec
M107
M862.3 P "MK3S" ; printer model check
M862.1 P0.4 ; nozzle diameter check
M115 U3.9.0 ; tell printer latest fw version
G90 ; use absolute coordinates
M83 ; extruder relative mode
M104 S215 ; set extruder temp
M140 S60 ; set bed temp
M190 S60 ; wait for bed temp
M109 S215 ; wait for extruder temp
G28 W ; home all without mesh bed level
G80 ; mesh bed leveling
G1 Y-3.0 F1000.0 ; go outside print area
G92 E0.0
G1 X60.0 E9.0 F1000.0 ; intro line
M73 Q0 S61
M73 P0 R60
G1 X100.0 E12.5 F1000.0 ; intro line
G92 E0.0
M221 S95
G21 ; set units to millimeters
G90 ; use absolute coordinates
M83 ; use relative distances for extrusion
M900 K0.06 ; Filament gcode LA 1.5
M900 K30 ; Filament gcode LA 1.0
;BEFORE_LAYER_CHANGE
G92 E0.0
;0.2


G1 E-0.80000 F2100.00000
G1 Z0.600 F10800.000
;AFTER_LAYER_CHANGE
;0.2
G1 X61.614 Y101.766
G1 Z0.200
G1 E0.80000 F2100.00000
M204 S1000
G1 F1200.000
G1 X61.869 Y101.182 E0.02000
G1 X62.212 Y100.744 E0.01744
G1 X121.514 Y40.912 E2.64133
G1 X121.931 Y40.576 E0.01680
G1 X122.530 Y40.305 E0.02060
G1 X123.179 Y40.208 E0.02060
G1 X158.128 Y40.208 E1.09578
G1 X158.782 Y40.301 E0.02071
G1 X159.385 Y40.570 E0.02071
G1 X159.891 Y40.995 E0.02071
G1 X160.259 Y41.539 E0.02060
G1 X188.255 Y101.414 E2.07240
G1 X188.428 Y101.937 E0.01728
G1 X188.473 Y133.972 E1.00445
G1 X185.013 Y167.673 E1.06222
G1 X184.901 Y168.178 E0.01621
G1 X184.681 Y168.650 E0.01633
G1 X184.307 Y169.119 E0.01882
G1 X183.824 Y169.482 E0.01894
G1 X183.265 Y169.711 E0.01894
G1 X182.667 Y169.792 E0.01894
G1 X80.802 Y169.792 E3.19388
G1 X80.167 Y169.703 E0.02012
G1 X79.575 Y169.446 E0.02024
G1 X79.092 Y169.058 E0.01941
G1 X78.724 Y168.555 E0.01953
G1 X61.804 Y137.038 E1.12161
G1 X61.599 Y136.514 E0.01763
G1 X61.523 Y135.923 E0.01870
G1 X61.523 Y102.398 E1.05114
G1 X61.605 Y101.826 E0.01812
G1 F8640.000
G1 X61.869 Y101.182 E-0.16071
G1 X62.212 Y100.744 E-0.12844
G1 X63.647 Y99.295 E-0.47086
G1 E-0.04000 F2100.00000
G1 Z0.800 F10800.000
G1 X64.959 Y97.703
G1 Z0.200
G1 E0.80000 F2100.00000
G1 F1200.000
G1 X63.390 Y97.703 E0.04920
G1 X62.167 Y98.002 E0.03947
G1 X61.351 Y98.411 E0.02862
G1 X60.339 Y99.309 E0.04242
G1 X59.835 Y99.947 E0.02550
G1 X59.187 Y101.870 E0.06363
G1 X59.187 Y136.233 E1.07743
G1 X59.323 Y137.116 E0.02802
G1 X59.941 Y138.492 E0.04729
G1 X60.969 Y139.627 E0.04802
G1 X64.105 Y141.724 E0.11828
G1 X64.773 Y142.170 F10800.000
G1 F1200.000
G1 X76.097 Y149.738 E0.42704
G1 X76.097 Y163.262 E0.42404
G1 X76.097 Y164.059 F10800.000
G1 F1200.000
G1 X76.097 Y167.925 E0.12120
G1 X76.395 Y169.148 E0.03947
G1 X76.804 Y169.964 E0.02862
G1 X77.702 Y170.976 E0.04242
G1 X78.340 Y171.480 E0.02550
G1 X80.263 Y172.128 E0.06363
G1 X183.066 Y172.128 E3.22330
G1 X184.069 Y171.941 E0.03200
G1 X184.996 Y171.538 E0.03171
G1 X186.142 Y170.595 E0.04653
G1 X186.639 Y169.993 E0.02448
G1 X187.288 Y168.392 E0.05415
G1 X190.801 Y134.206 E1.07754
G1 X190.814 Y102.019 E1.00918
G1 X190.721 Y101.298 E0.02281
G1 X190.150 Y99.947 E0.04597
G1 X189.168 Y98.815 E0.04699
G1 X187.984 Y98.060 E0.04404
G1 X186.742 Y97.732 E0.04028
G1 X186.315 Y97.709 F10800.000
G1 F1200.000
G1 X162.837 Y97.703 E0.73611
G1 X162.837 Y47.500 E1.57411
G1 X162.837 Y46.609 F10800.000
G1 F1200.000
G1 X162.837 Y42.074 E0.14222
G1 X162.477 Y40.691 E0.04481
G1 X161.686 Y39.473 E0.04551
G1 X160.467 Y38.450 E0.04990
G1 X159.559 Y38.059 E0.03101
G1 X158.610 Y37.875 E0.03029
G1 X122.693 Y37.871 E1.12618
G1 X121.469 Y38.170 E0.03948
G1 X120.653 Y38.579 E0.02862
G1 X119.641 Y39.477 E0.04242
G1 X119.137 Y40.115 E0.02550
G1 X118.489 Y42.038 E0.06363
G1 X118.489 Y43.696 E0.05198
G1 X118.489 Y44.232 F10800.000
G1 F1200.000
G1 X118.489 Y97.703 E1.67657
G1 X65.490 Y97.703 E1.66172
G1 X65.117 Y98.081 F10800.000
G1 F1200.000
G1 X118.866 Y98.081 E1.68526
G1 X118.866 Y43.851 E1.70032
G1 X118.866 Y43.316 F10800.000
G1 F1200.000
G1 X118.866 Y42.069 E0.03909
G1 X119.454 Y40.322 E0.05778
G1 X119.906 Y39.746 E0.02295
G1 X120.846 Y38.903 E0.03960
G1 X121.582 Y38.530 E0.02585
G1 X122.716 Y38.249 E0.03664
G1 X158.592 Y38.252 E1.12486
G1 X159.465 Y38.425 E0.02791
G1 X160.290 Y38.784 E0.02823
G1 X161.421 Y39.743 E0.04647
G1 X162.120 Y40.817 E0.04018
G1 X162.460 Y42.098 E0.04157
G1 X162.460 Y45.803 E0.11615
G1 X162.460 Y46.693 F10800.000
G1 F1200.000
G1 X162.460 Y98.081 E1.61122
M73 Q1 S60
M73 P1 R59
G1 X186.488 Y98.081 E0.75338
G1 X186.948 Y98.174 F10800.000
G1 F1200.000
G1 X187.809 Y98.395 E0.02786
G1 X188.904 Y99.084 E0.04057
G1 X189.815 Y100.124 E0.04336
G1 X190.350 Y101.373 E0.04260
G1 X190.436 Y102.032 E0.02083
G1 X190.425 Y134.177 E1.00788
G1 X186.916 Y168.326 E1.07638
G1 X186.301 Y169.822 E0.05068
G1 X185.888 Y170.316 E0.02021
G1 X184.821 Y171.203 E0.04351
G1 X183.938 Y171.587 E0.03017
G1 X183.048 Y171.751 E0.02838
G1 X80.294 Y171.751 E3.22180
G1 X78.547 Y171.163 E0.05778
G1 X77.971 Y170.711 E0.02295
G1 X77.128 Y169.771 E0.03960
G1 X76.755 Y169.035 E0.02585
G1 X76.474 Y167.901 E0.03664
G1 X76.474 Y164.762 E0.09844
G1 X76.474 Y163.964 F10800.000
G1 F1200.000
G1 X76.474 Y149.537 E0.45238
G1 X64.393 Y141.462 E0.45559
G1 X63.726 Y141.016 F10800.000
G1 F1200.000
G1 X61.197 Y139.326 E0.09535
G1 X60.272 Y138.309 E0.04313
G1 X59.691 Y137.032 E0.04398
G1 X59.564 Y136.218 E0.02582
G1 X59.564 Y101.901 E1.07601
G1 X60.152 Y100.154 E0.05778
G1 X60.604 Y99.578 E0.02295
G1 X61.544 Y98.735 E0.03960
G1 X62.280 Y98.362 E0.02585
G1 X63.414 Y98.081 E0.03664
G1 X64.586 Y98.081 E0.03674
G1 X64.743 Y98.458 F10800.000
G1 F1200.000
G1 X119.243 Y98.458 E1.70880
G1 X119.243 Y43.471 E1.72407
G1 X119.243 Y42.935 F10800.000
G1 F1200.000
G1 X119.243 Y42.099 E0.02620
G1 X119.771 Y40.528 E0.05197
G1 X120.172 Y40.014 E0.02043
G1 X121.042 Y39.227 E0.03679
G1 X121.696 Y38.890 E0.02308
G1 X122.740 Y38.626 E0.03376
G1 X158.572 Y38.629 E1.12350
G1 X159.370 Y38.790 E0.02550
G1 X160.112 Y39.118 E0.02545
G1 X161.154 Y40.011 E0.04302
G1 X161.787 Y40.995 E0.03669
G1 X162.083 Y42.123 E0.03655
G1 X162.083 Y44.996 E0.09011
G1 X162.083 Y45.887 F10800.000
G1 F1200.000
G1 X162.083 Y98.458 E1.64833
G1 X186.562 Y98.458 E0.76750
G1 X186.679 Y98.488 E0.00380
G1 X187.153 Y98.613 F10800.000
G1 F1200.000
G1 X187.684 Y98.752 E0.01721
G1 X188.640 Y99.355 E0.03542
G1 X189.482 Y100.303 E0.03976
G1 X189.980 Y101.449 E0.03920
G1 X190.059 Y102.044 E0.01882
G1 X190.048 Y134.148 E1.00658
G1 X186.543 Y168.261 E1.07523
G1 X185.993 Y169.603 E0.04549
G1 X185.632 Y170.039 E0.01774
G1 X184.644 Y170.870 E0.04046
G1 X183.847 Y171.220 E0.02731
G1 X183.031 Y171.374 E0.02604
G1 X80.324 Y171.374 E3.22028
G1 X78.753 Y170.846 E0.05197
G1 X78.239 Y170.445 E0.02043
G1 X77.452 Y169.575 E0.03679
G1 X77.115 Y168.921 E0.02308
G1 X76.851 Y167.877 E0.03376
G1 X76.851 Y165.464 E0.07567
G1 X76.851 Y164.667 F10800.000
G1 F1200.000
G1 X76.851 Y149.335 E0.48072
G1 X64.013 Y140.755 E0.48413
G1 X63.346 Y140.309 F10800.000
G1 F1200.000
G1 X61.427 Y139.026 E0.07238
G1 X60.571 Y138.078 E0.04003
G1 X60.060 Y136.948 E0.03892
G1 X59.941 Y136.203 E0.02363
G1 X59.941 Y101.931 E1.07457
G1 X60.469 Y100.360 E0.05197
G1 X60.870 Y99.846 E0.02043
G1 X61.740 Y99.059 E0.03679
G1 X62.394 Y98.722 E0.02308
G1 X63.438 Y98.458 E0.03376
G1 X64.212 Y98.458 E0.02428
G1 X64.369 Y98.835 F10800.000
G1 F1200.000
G1 X119.620 Y98.835 E1.73234
G1 X119.620 Y43.090 E1.74783
G1 X119.620 Y42.555 F10800.000
G1 F1200.000
G1 X119.620 Y42.130 E0.01331
G1 X120.089 Y40.734 E0.04619
G1 X120.439 Y40.281 E0.01793
G1 X121.239 Y39.549 E0.03399
G1 X121.813 Y39.250 E0.02030
G1 X122.764 Y39.003 E0.03083
G1 X158.553 Y39.006 E1.12212
G1 X159.272 Y39.155 E0.02304
G1 X159.932 Y39.450 E0.02266
G1 X160.886 Y40.277 E0.03960
G1 X161.430 Y41.122 E0.03149
G1 X161.706 Y42.148 E0.03331
G1 X161.706 Y44.190 E0.06403
G1 X161.706 Y45.080 F10800.000
G1 F1200.000
G1 X161.706 Y98.835 E1.68543
G1 X186.538 Y98.835 E0.77858
G1 X186.883 Y98.924 E0.01118
G1 X187.357 Y99.048 F10800.000
G1 F1200.000
G1 X187.510 Y99.088 E0.00497
G1 X188.378 Y99.628 E0.03206
G1 X189.150 Y100.484 E0.03612
G1 X189.610 Y101.527 E0.03577
G1 X189.682 Y102.057 E0.01677
G1 X189.672 Y134.119 E1.00527
G1 X186.171 Y168.196 E1.07408
G1 X185.683 Y169.386 E0.04035
G1 X185.374 Y169.763 E0.01529
G1 X184.465 Y170.537 E0.03742
G1 X183.753 Y170.854 E0.02444
G1 X183.012 Y170.997 E0.02366
G1 X80.355 Y170.997 E3.21874
M73 Q3 S59
M73 P3 R58
G1 X78.959 Y170.528 E0.04619
G1 X78.506 Y170.178 E0.01793
G1 X77.774 Y169.378 E0.03399
G1 X77.475 Y168.804 E0.02030
G1 X77.228 Y167.853 E0.03082
G1 X77.228 Y166.166 E0.05288
G1 X77.228 Y165.369 F10800.000
G1 F1200.000
G1 X77.228 Y149.133 E0.50906
G1 X63.634 Y140.048 E0.51267
G1 X62.966 Y139.602 F10800.000
G1 F1200.000
G1 X61.655 Y138.725 E0.04944
G1 X60.902 Y137.894 E0.03518
G1 X60.428 Y136.861 E0.03564
G1 X60.318 Y136.188 E0.02139
G1 X60.318 Y101.962 E1.07312
G1 X60.787 Y100.566 E0.04619
G1 X61.137 Y100.113 E0.01793
G1 X61.937 Y99.381 E0.03399
G1 X62.511 Y99.081 E0.02030
G1 X63.462 Y98.835 E0.03082
G1 X63.838 Y98.835 E0.01179
G1 X63.995 Y99.212 F10800.000
G1 F1200.000
G1 X119.997 Y99.212 E1.75589
G1 X119.997 Y42.710 E1.77158
G1 X119.997 Y42.174 F10800.000
G1 F1200.000
G1 X120.408 Y40.938 E0.04086
G1 X120.707 Y40.546 E0.01546
G1 X121.438 Y39.870 E0.03121
G1 X121.931 Y39.608 E0.01752
G1 X122.789 Y39.380 E0.02783
G1 X158.534 Y39.383 E1.12074
G1 X159.137 Y39.508 E0.01932
G1 X159.752 Y39.782 E0.02110
G1 X160.616 Y40.542 E0.03609
G1 X161.096 Y41.299 E0.02809
G1 X161.329 Y42.172 E0.02835
G1 X161.329 Y43.384 E0.03798
G1 X161.329 Y44.274 F10800.000
G1 F1200.000
G1 X161.329 Y99.212 E1.72254
G1 X186.513 Y99.212 E0.78961
G1 X187.089 Y99.365 E0.01870
G1 X187.607 Y99.583 F10800.000
G1 F1200.000
G1 X188.118 Y99.902 E0.01889
G1 X188.819 Y100.667 E0.03252
G1 X189.241 Y101.606 E0.03230
G1 X189.305 Y102.071 E0.01469
G1 X189.296 Y134.090 E1.00394
G1 X185.799 Y168.130 E1.07293
G1 X185.373 Y169.171 E0.03525
G1 X185.114 Y169.489 E0.01287
G1 X184.283 Y170.205 E0.03438
G1 X183.658 Y170.489 E0.02155
G1 X182.993 Y170.620 E0.02123
G1 X80.386 Y170.620 E3.21719
G1 X79.163 Y170.209 E0.04045
G1 X78.771 Y169.910 E0.01546
G1 X78.095 Y169.179 E0.03121
G1 X77.833 Y168.686 E0.01752
G1 X77.605 Y167.828 E0.02783
G1 X77.605 Y166.869 E0.03007
G1 X77.605 Y166.072 F10800.000
G1 F1200.000
G1 X77.605 Y148.932 E0.53740
G1 X63.254 Y139.340 E0.54121
G1 X62.586 Y138.894 F10800.000
G1 F1200.000
G1 X61.885 Y138.425 E0.02646
G1 X61.202 Y137.664 E0.03206
G1 X60.795 Y136.774 E0.03067
G1 X60.695 Y136.172 E0.01916
G1 X60.695 Y101.993 E1.07166
G1 X61.106 Y100.770 E0.04045
G1 X61.405 Y100.378 E0.01546
G1 X62.136 Y99.702 E0.03121
G1 X62.629 Y99.440 E0.01752
G1 X63.456 Y99.220 E0.02683
G1 X63.622 Y99.589 F10800.000
G1 F1200.000
G1 X120.374 Y99.589 E1.77943
G1 X120.374 Y42.329 E1.79533
G1 X120.576 Y41.590 F10800.000
G1 F1200.000
G1 X120.727 Y41.140 E0.01487
G1 X120.977 Y40.810 E0.01301
G1 X121.640 Y40.189 E0.02845
G1 X122.053 Y39.965 E0.01474
G1 X122.815 Y39.757 E0.02477
G1 X158.513 Y39.761 E1.11928
G1 X159.038 Y39.872 E0.01681
G1 X159.569 Y40.113 E0.01829
G1 X160.346 Y40.806 E0.03263
G1 X160.740 Y41.426 E0.02306
G1 X160.952 Y42.198 E0.02510
G1 X160.952 Y42.577 E0.01188
G1 X160.952 Y43.467 F10800.000
G1 F1200.000
G1 X160.952 Y99.589 E1.75965
G1 X186.487 Y99.589 E0.80062
G1 X187.258 Y99.800 E0.02508
G1 X187.307 Y99.831 E0.00179
G1 X187.910 Y100.231 F10800.000
G1 F1200.000
G1 X188.489 Y100.853 E0.02662
G1 X188.872 Y101.688 E0.02880
G1 X188.928 Y102.084 E0.01256
G1 X188.920 Y134.061 E1.00261
G1 X185.426 Y168.065 E1.07178
G1 X185.061 Y168.957 E0.03022
G1 X184.853 Y169.217 E0.01046
G1 X184.100 Y169.875 E0.03134
G1 X183.560 Y170.124 E0.01864
G1 X182.974 Y170.243 E0.01875
G1 X80.416 Y170.243 E3.21562
G1 X79.365 Y169.890 E0.03476
G1 X79.035 Y169.640 E0.01301
G1 X78.414 Y168.977 E0.02845
G1 X78.190 Y168.564 E0.01474
G1 X77.982 Y167.802 E0.02477
G1 X77.982 Y167.571 E0.00723
G1 X77.982 Y166.774 F10800.000
G1 F1200.000
G1 X77.982 Y148.730 E0.56574
G1 X62.874 Y138.633 E0.56976
G1 X62.207 Y138.187 F10800.000
G1 F1200.000
G1 X62.114 Y138.125 E0.00351
G1 X61.531 Y137.479 E0.02726
G1 X61.163 Y136.685 E0.02745
G1 X61.072 Y136.155 E0.01685
G1 X61.072 Y102.023 E1.07019
G1 X61.425 Y100.972 E0.03476
G1 X61.675 Y100.641 E0.01301
G1 X62.338 Y100.021 E0.02845
G1 X62.751 Y99.797 E0.01474
G1 X62.934 Y99.748 E0.00593
G1 X63.134 Y100.081 F10800.000
G1 F1200.000
G1 X63.540 Y99.966 E0.01323
G1 X120.751 Y99.966 E1.79381
G1 X120.751 Y42.222 E1.81052
M73 Q5 S58
M73 P5 R57
G1 X120.890 Y41.809 E0.01367
G1 F8640.000
G1 X120.751 Y42.222 E-0.10065
G1 X120.751 Y45.077 E-0.65935
G1 E-0.04000 F2100.00000
G1 Z0.800 F10800.000
G1 X160.575 Y42.661
G1 Z0.200
G1 E0.80000 F2100.00000
G1 F1200.000
G1 X160.575 Y99.966 E1.79676
G1 X186.460 Y99.966 E0.81160
G1 X187.129 Y100.155 E0.02179
G1 X187.596 Y100.450 E0.01733
G1 F8640.000
G1 X187.129 Y100.155 E-0.12763
G1 X186.460 Y99.966 E-0.16045
G1 X184.416 Y99.966 E-0.47192
G1 E-0.04000 F2100.00000
G1 Z0.800 F10800.000
G1 X78.359 Y167.476
G1 Z0.200
G1 E0.80000 F2100.00000
G1 F1200.000
G1 X78.359 Y148.529 E0.59408
G1 X62.494 Y137.926 E0.59830
G1 F8640.000
G1 X65.231 Y139.755 E-0.76000
G1 E-0.04000 F2100.00000
G1 Z0.800 F10800.000
G1 X160.198 Y100.343
G1 Z0.200
G1 E0.80000 F2100.00000
G1 F1200.000
G1 X186.432 Y100.343 E0.82255
G1 X186.996 Y100.509 E0.01842
G1 X187.349 Y100.734 E0.01314
G1 X187.836 Y101.234 E0.02188
G1 X188.135 Y101.857 E0.02167
G1 X188.174 Y102.113 E0.00813
G1 X188.168 Y134.003 E0.99988
G1 X184.682 Y167.934 E1.06947
G1 X184.434 Y168.535 E0.02039
G1 X184.323 Y168.680 E0.00573
G1 X183.727 Y169.217 E0.02515
G1 X183.319 Y169.409 E0.01413
G1 X182.935 Y169.489 E0.01231
G1 X80.478 Y169.489 E3.21247
G1 X79.766 Y169.249 E0.02355
G1 X79.556 Y169.094 E0.00819
G1 X79.047 Y168.564 E0.02305
G1 X78.901 Y168.309 E0.00919
G1 X78.736 Y167.747 E0.01838
G1 X78.736 Y148.327 E0.60889
G1 X62.573 Y137.524 E0.60956
G1 X62.161 Y137.063 E0.01939
G1 X61.896 Y136.502 E0.01946
G1 X61.826 Y136.121 E0.01216
G1 X61.826 Y102.085 E1.06718
G1 X62.066 Y101.373 E0.02355
G1 X62.221 Y101.163 E0.00819
G1 X62.751 Y100.654 E0.02305
G1 X63.006 Y100.508 E0.00919
G1 X63.568 Y100.343 E0.01838
G1 X121.128 Y100.343 E1.80475
G1 X121.128 Y42.253 E1.82138
G1 X121.368 Y41.541 E0.02355
G1 X121.523 Y41.331 E0.00819
G1 X122.053 Y40.822 E0.02305
G1 X122.308 Y40.676 E0.00919
G1 X122.870 Y40.511 E0.01838
G1 X158.470 Y40.515 E1.11620
G1 X158.829 Y40.598 E0.01157
G1 X159.195 Y40.770 E0.01268
G1 X159.800 Y41.328 E0.02580
G1 X160.032 Y41.690 E0.01347
G1 X160.198 Y42.253 E0.01841
G1 X160.198 Y100.283 E1.81949
G1 X159.821 Y100.720 F10800.000
G1 F1200.000
G1 X186.402 Y100.720 E0.83344
G1 X186.858 Y100.861 E0.01496
G1 X187.098 Y101.015 E0.00892
G1 X187.513 Y101.430 E0.01841
G1 X187.767 Y101.947 E0.01806
G1 X187.797 Y102.129 E0.00579
G1 X187.792 Y133.974 E0.99848
G1 X184.309 Y167.868 E1.06830
G1 X184.118 Y168.329 E0.01566
G1 X184.053 Y168.416 E0.00340
G1 X183.539 Y168.889 E0.02189
G1 X183.179 Y169.058 E0.01248
G1 X182.916 Y169.112 E0.00841
G1 X80.509 Y169.112 E3.21091
G1 X79.964 Y168.927 E0.01806
G1 X79.814 Y168.818 E0.00580
G1 X79.359 Y168.351 E0.02044
G1 X79.254 Y168.174 E0.00643
G1 X79.113 Y167.717 E0.01500
G1 X79.113 Y148.126 E0.61428
G1 X62.802 Y137.224 E0.61515
G1 X62.488 Y136.874 E0.01473
G1 X62.261 Y136.406 E0.01632
G1 X62.203 Y136.102 E0.00969
G1 X62.203 Y102.116 E1.06562
G1 X62.388 Y101.571 E0.01806
G1 X62.497 Y101.421 E0.00580
G1 X62.964 Y100.965 E0.02044
G1 X63.141 Y100.861 E0.00643
G1 X63.598 Y100.720 E0.01500
G1 X121.505 Y100.720 E1.81565
G1 X121.505 Y42.284 E1.83223
G1 X121.690 Y41.739 E0.01806
